!!!COM: Vivaldi, Antonio Lucio
!!!CDT: 1678/03/04-1741/08/28
!!!OPR: 12 sonatas for two violins and basso continuo
!!!OTL: Sonata in B-flat major, op. @{OPS}, no. @{ONM} (@{SCT})
!!!OPS: 1
!!!ONM: 10
!!!OMV: 2. Allemanda
!!!SCT: RV 78
!!!SCA: Antonio Vivaldi: Thematisch-systematisches Verzeichnis seiner Werke (Ryom-Verzeichnis)
!!!OMD: Allegro
!!!key: B-
**kern	**dynam	**fb	**kern	**dynam	**kern	**dynam
*part3	*	*	*part2	*	*part1	*
*staff3	*	*	*staff2	*	*staff1	*
*ICstr&ICklav	*	*	*ICstr	*	*ICstr	*
*Icello&Icemba	*	*	*Ivioln	*	*Ivioln	*
*	*	*	*I#2	*	*I#1	*
*I"Violoncello\nContinuo	*	*	*I"Violin 2	*	*I"Violin 1	*
*I'bc	*	*	*I'v2	*	*I'v1	*
*>[A,A,B,B]	*>[A,A,B,B]	*>[A,A,B,B]	*>[A,A,B,B]	*>[A,A,B,B]	*>[A,A,B,B]	*>[A,A,B,B]
*>norep[A,B]	*>norep[A,B]	*>norep[A,B]	*>norep[A,B]	*>norep[A,B]	*>norep[A,B]	*>norep[A,B]
*>A	*>A	*>A	*>A	*>A	*>A	*>A
*clefF4	*	*	*clefG2	*	*clefG2	*
*k[b-e-]	*	*	*k[b-e-]	*	*k[b-e-]	*
*B-:	*	*	*B-:	*	*B-:	*
*M4/4	*	*	*M4/4	*	*M4/4	*
*met(c)	*	*	*met(c)	*	*met(c)	*
*MM126	*	*	*MM126	*	*MM126	*
=1	=1	=1	=1	=1	=1	=1
8f\L	.	.	4r	.	1r	.
8e-y\	.	.	.	.	.	.
8d\	.	6	8r	.	.	.
8c\J	.	.	8ff\	.	.	.
4B-y\	.	.	8bb-y\L	.	.	.
.	.	.	8b-y\	.	.	.
4A\	.	4 2	8b-y\	.	.	.
.	.	.	8b-y\J	.	.	.
=2	=2	=2	=2	=2	=2	=2
4G\	.	.	(16b-y/LL	.	4r	.
.	.	.	16a/J	.	.	.
.	.	.	8b-y/J)	.	.	.
8B-y\L	.	.	4r	.	8r	.
8A\J	.	.	.	.	8ff\	.
8G\L	.	.	2r	.	8bb-y\L	.
8F\	.	.	.	.	8b-y\	.
8E-y\	.	.	.	.	8b-y\	.
8D\J	.	6	.	.	8b-y\J	.
=3	=3	=3	=3	=3	=3	=3
4E-y\	.	.	8r	.	(16b-y/LL	.
.	.	.	.	.	16a/J	.
.	.	.	8b-y\	.	8b-y/J)	.
8r	.	.	8ff\L	.	16r	.
.	.	.	.	.	16dd\LL	.
8D\	.	6	8b-y\J	.	16ff\	.
.	.	.	.	.	16dd\JJ	.
4E-y\	.	.	8gg\L	.	(16b-y/LL	.
.	.	.	.	.	16a/J	.
.	.	.	8b-y\	.	8b-y/J)	.
4D\	.	6	8ff\	.	16r	.
.	.	.	.	.	16dd\LL	.
.	.	.	8b-y\J	.	16ff\	.
.	.	.	.	.	16dd\JJ	.
=4	=4	=4	=4	=4	=4	=4
4E-y\	.	.	8gg\L	.	(16b-y/LL	.
.	.	.	.	.	16a/J	.
.	.	.	8b-y\	.	8b-y/J)	.
8r	.	.	8ff\	.	16r	.
.	.	.	.	.	16dd\LL	.
8D\	.	6	8b-y\J	.	16ff\	.
.	.	.	.	.	16dd\JJ	.
8E-y\L	.	6 5	16gg\LL	.	8cc\L	.
.	.	.	16aa\JJ	.	.	.
16D\L	.	.	4bb-y\	.	8ff\	.
16E-y\JJ	.	.	.	.	.	.
8F/L	.	5 4	.	.	8cc\	.
8FF/J	.	3	8aa\	.	8ff\J	.
!!LO:LB:g=original
=5	=5	=5	=5	=5	=5	=5
4BB-y/	.	.	4bb-y\	.	16dd\LL	.
.	.	.	.	.	16ff\	.
.	.	.	.	.	16bb-y\	.
.	.	.	.	.	16ff\JJ	.
8r	.	.	8r	.	16dd\LL	.
.	.	.	.	.	16ff\	.
8D\	.	6	8bb-y\	.	16bb-y\	.
.	.	.	.	.	16dd\JJ	.
4C/	.	7	(8bb-y\L	.	16ee-y\LL	.
.	.	.	.	.	16dd\	.
.	.	.	8aa\J)	.	16cc\	.
.	.	.	.	.	16dd\JJ	.
4F\	.	7	8r	.	16ee-y\LL	.
.	.	.	.	.	16gg\	.
.	.	.	8aa\	.	16ff\	.
.	.	.	.	.	16ee-y\JJ	.
=6	=6	=6	=6	=6	=6	=6
4BB-y/	.	.	8bb-y\L	.	16dd\LL	.
.	.	.	.	.	16cc\	.
.	.	.	8b-y\J	.	16b-y\	.
.	.	.	.	.	16dd\JJ	.
4AA/	.	6	8r	.	16cc\LL	.
.	.	.	.	.	16b-y\	.
.	.	.	8ff\	.	16a\	.
.	.	.	.	.	16cc\JJ	.
4GG/	.	7	(8ff\L	.	16b-y\LL	.
.	.	.	.	.	16a\	.
.	.	.	8een\J)	.	16b-y\	.
.	.	.	.	.	16cc\JJ	.
4C/	.	n	8r	.	16b-y\LL	.
.	.	.	.	.	16dd\	.
.	.	.	8ee\	.	16cc\	.
.	.	.	.	.	16b-y\JJ	.
=7	=7	=7	=7	=7	=7	=7
4FF/	.	.	8ff\L	.	16a/LL	.
.	.	.	.	.	16b-y/	.
.	.	.	8f\J	.	16a/	.
.	.	.	.	.	16g/JJ	.
16F\LL	.	.	4r	.	4f/	.
16G\	.	.	.	.	.	.
16F\	.	.	.	.	.	.
16E-y\JJ	.	.	.	.	.	.
4D\	.	6	16dd\LL	.	4r	.
.	.	.	16ff\	.	.	.
.	.	.	16bb-y\	.	.	.
.	.	.	16ff\JJ	.	.	.
8r	.	.	16dd\LL	.	8r	.
.	.	.	16ff\	.	.	.
8D\	.	.	16bb-y\	.	8bb-y\	.
.	.	.	16dd\JJ	.	.	.
=8	=8	=8	=8	=8	=8	=8
4C/	.	7	16ee-y\LL	.	(8bb-y\L	.
.	.	.	16dd\	.	.	.
.	.	.	16cc\	.	8aa\J)	.
.	.	.	16dd\JJ	.	.	.
4F\	.	7	16ee-y\LL	.	8r	.
.	.	.	16gg\	.	.	.
.	.	.	16ff\	.	8aa\	.
.	.	.	16ee-y\JJ	.	.	.
4BB-y/	.	.	16dd\LL	.	8bb-y\L	.
.	.	.	16cc\	.	.	.
.	.	.	16b-y\	.	8b-y\J	.
.	.	.	16dd\JJ	.	.	.
4AA/	.	6	16cc\LL	.	8r	.
.	.	.	16b-y\	.	.	.
.	.	.	16a\	.	8ff\	.
.	.	.	16cc\JJ	.	.	.
!!LO:LB:g=original
=9	=9	=9	=9	=9	=9	=9
4GG/	.	7	16b-y\LL	.	(8ff\L	.
.	.	.	16a\	.	.	.
.	.	.	16b-y\	.	8een\J)	.
.	.	.	16cc\JJ	.	.	.
4C/	.	7 n	16b-y\LL	.	8r	.
.	.	.	16dd\	.	.	.
.	.	.	16cc\	.	8ee\	.
.	.	.	16b-y\JJ	.	.	.
4FF/	.	.	8a/L	.	16ff\LL	.
.	.	.	.	.	16aa\	.
.	.	.	8f/J	.	16ff\	.
.	.	.	.	.	16aa\JJ	.
8r	.	.	8r	.	16ff\LL	.
.	.	.	.	.	16aa\	.
8A\	.	6	8ff\	.	16ff\	.
.	.	.	.	.	16aa\JJ	.
=10	=10	=10	=10	=10	=10	=10
4G\	.	7	(8ff\L	.	16bb-y\LL	.
.	.	.	.	.	16gg\	.
.	.	.	8een\J)	.	16bb-y\	.
.	.	.	.	.	16gg\JJ	.
4c\	.	7 n	8r	.	16bb-y\LL	.
.	.	.	.	.	16gg\	.
.	.	.	8ee\	.	16bb-y\	.
.	.	.	.	.	16gg\JJ	.
4F\	.	7	(8ee\L	.	16aa\LL	.
.	.	.	.	.	16ff\	.
.	.	.	8dd\J)	.	16aa\	.
.	.	.	.	.	16ff\JJ	.
4B-y\	.	7	8r	.	16aa\LL	.
.	.	.	.	.	16ff\	.
.	.	.	8dd\	.	16aa\	.
.	.	.	.	.	16ff\JJ	.
=11	=11	=11	=11	=11	=11	=11
4En\	.	7	(8dd\L	.	16gg\LL	.
.	.	.	.	.	16een\	.
.	.	.	8cc\J)	.	16gg\	.
.	.	.	.	.	16ee\JJ	.
4A\	.	7	8r	.	16gg\LL	.
.	.	.	.	.	16ee\	.
.	.	.	8cc\	.	16gg\	.
.	.	.	.	.	16ee\JJ	.
4D\	.	7	(8cc\L	.	16ff\LL	.
.	.	.	.	.	16dd\	.
.	.	.	8b-y\J)	.	16ff\	.
.	.	.	.	.	16dd\JJ	.
4G\	.	7	8r	.	16ff\LL	.
.	.	.	.	.	16dd\	.
.	.	.	8bb-y\	.	16ff\	.
.	.	.	.	.	16dd\JJ	.
!!LO:PB:g=original
=12	=12	=12	=12	=12	=12	=12
4C/	.	7 n	4bb-y\	.	16een\LL	.
.	.	.	.	.	16cc\	.
.	.	.	.	.	16ee\	.
.	.	.	.	.	16cc\JJ	.
4FF/	.	.	4aa\	.	16ff\LL	.
.	.	.	.	.	16cc\	.
.	.	.	.	.	16ff\	.
.	.	.	.	.	16cc\JJ	.
4BB-y/	.	6 5	2gg\	.	16dd\LL	.
.	.	.	.	.	16ff\	.
.	.	.	.	.	16dd\	.
.	.	.	.	.	16ff\JJ	.
4C/	.	n	.	.	16cc\LL	.
.	.	.	.	.	16een\	.
.	.	.	.	.	16cc\	.
.	.	.	.	.	16ee\JJ	.
=13	=13	=13	=13	=13	=13	=13
4FF/	.	.	16ff\LL	.	4ff\	.
.	.	.	16aa\	.	.	.
.	.	.	16ff\	.	.	.
.	.	.	16aa\JJ	.	.	.
8r	.	.	16ff\LL	.	8r	.
.	.	.	16aa\	.	.	.
8A\	.	6	16ff\	.	8ff\	.
.	.	.	16aa\JJ	.	.	.
4G\	.	7	16bb-y\LL	.	(8ff\L	.
.	.	.	16gg\	.	.	.
.	.	.	16bb-y\	.	8een\J)	.
.	.	.	16gg\JJ	.	.	.
4c\	.	7 n	16bb-y\LL	.	8r	.
.	.	.	16gg\	.	.	.
.	.	.	16bb-y\	.	8een\	.
.	.	.	16gg\JJ	.	.	.
=14	=14	=14	=14	=14	=14	=14
4F\	.	7	16aa\LL	.	(8ee-y\L	.
.	.	.	16ff\	.	.	.
.	.	.	16aa\	.	8dd\J)	.
.	.	.	16ff\JJ	.	.	.
4B-y\	.	7	16aa\LL	.	8r	.
.	.	.	16ff\	.	.	.
.	.	.	16aa\	.	8dd\	.
.	.	.	16ff\JJ	.	.	.
4En\	.	7	16gg\LL	.	(8dd\L	.
.	.	.	16een\	.	.	.
.	.	.	16gg\	.	8cc\J)	.
.	.	.	16ee\JJ	.	.	.
4A\	.	7	16gg\LL	.	8r	.
.	.	.	16een\	.	.	.
.	.	.	16gg\	.	8cc\	.
.	.	.	16ee\JJ	.	.	.
!!LO:LB:g=original
=15	=15	=15	=15	=15	=15	=15
4D\	.	7	16ff\LL	.	(8cc\L	.
.	.	.	16dd\	.	.	.
.	.	.	16ff\	.	8b-y\J)	.
.	.	.	16dd\JJ	.	.	.
4G\	.	7	16ff\LL	.	8r	.
.	.	.	16dd\	.	.	.
.	.	.	16ff\	.	8bb-y\	.
.	.	.	16dd\JJ	.	.	.
4C/	.	7 n	16een\LL	.	4bb-y\	.
.	.	.	16cc\	.	.	.
.	.	.	16ee\	.	.	.
.	.	.	16cc\JJ	.	.	.
4FF/	.	.	16ff\LL	.	4aa\	.
.	.	.	16cc\	.	.	.
.	.	.	16ff\	.	.	.
.	.	.	16cc\JJ	.	.	.
=16	=16	=16	=16	=16	=16	=16
4BB-y/	.	6 5	16dd\LL	.	2gg\	.
.	.	.	16ff\	.	.	.
.	.	.	16dd\	.	.	.
.	.	.	16ff\JJ	.	.	.
4C/	.	n	16cc\LL	.	.	.
.	.	.	16een\	.	.	.
.	.	.	16cc\	.	.	.
.	.	.	16ee\JJ	.	.	.
4FF/	.	.	8ff\L	.	4ff\	.
.	.	.	8f\	.	.	.
8r	.	.	8cc\	.	16r	.
.	.	.	.	.	16a/LL	.
8A\	.	6	8f\J	.	16cc/	.
.	.	.	.	.	16a/JJ	.
=17	=17	=17	=17	=17	=17	=17
4B-y\	.	.	8dd/L	.	(16f/LL	.
.	.	.	.	.	16en/J	.
.	.	.	8f/	.	8f/J)	.
4A\	.	6	8cc/	.	16r	.
.	.	.	.	.	16a/LL	.
.	.	.	8f/J	.	16cc/	.
.	.	.	.	.	16a/JJ	.
4B-y\	.	.	8dd/L	.	(16f/LL	.
.	.	.	.	.	16en/J	.
.	.	.	8f/	.	8f/J)	.
8r	.	.	8cc/	.	16r	.
.	.	.	.	.	16a/LL	.
8A\	.	6	8f/J	.	16cc/	.
.	.	.	.	.	16a/JJ	.
=18	=18	=18	=18	=18	=18	=18
8B-y\L	.	6 5	16dd\LL	.	8g/L	.
.	.	.	16een\JJ	.	.	.
16A\L	.	.	4ff\	.	8cc/	.
16B-y\JJ	.	.	.	.	.	.
8c\L	.	5 4	.	.	8g/	.
8C\J	.	n	8ee\	.	8cc/J	.
4FF/	.	.	4ff\	.	8a/L	.
.	.	.	.	.	8f/	.
8r	.	.	16r	.	8cc/	.
.	.	.	16a/LL	p	.	.
8A\	p	6	16cc/	.	8f/J	p
.	.	.	16a/JJ	.	.	.
!!LO:LB:g=original
=19	=19	=19	=19	=19	=19	=19
4B-y\	.	.	(16f/LL	.	8dd/L	.
.	.	.	16en/J	.	.	.
.	.	.	8f/J)	.	8f/	.
4A\	.	6	16r	.	8cc/	.
.	.	.	16a/LL	.	.	.
.	.	.	16cc/	.	8f/J	.
.	.	.	16a/JJ	.	.	.
4B-y\	.	.	(16f/LL	.	8dd/L	.
.	.	.	16e/J	.	.	.
.	.	.	8f/J)	.	8f/	.
8r	.	.	16r	.	8cc/	.
.	.	.	16a/LL	.	.	.
8A\	.	6	16cc/	.	8f/J	.
.	.	.	16a/JJ	.	.	.
=20	=20	=20	=20	=20	=20	=20
8B-y\L	.	6 5	8g/L	.	16d/LL	.
.	.	.	.	.	16en/JJ	.
16A\L	.	.	8cc/	.	4f/	.
16B-y\JJ	.	.	.	.	.	.
8c\L	.	5 4	8g/	.	.	.
8C\J	.	n	8cc/J	.	8en/	.
2FF/	.	.	2a/	.	2f/	.
=21:|!|:	=21:|!|:	=21:|!|:	=21:|!|:	=21:|!|:	=21:|!|:	=21:|!|:
*>B	*>B	*>B	*>B	*>B	*>B	*>B
2B-y\	.	.	2r	.	16dd\LL	.
.	.	.	.	.	16ff\	.
.	.	.	.	.	16dd\	.
.	.	.	.	.	16ff\JJ	.
.	.	.	.	.	16dd\LL	.
.	.	.	.	.	16ff\	.
.	.	.	.	.	16dd\	.
.	.	.	.	.	16ff\JJ	.
2G\	.	7 n	16dd\LL	.	4.bn\	.
.	.	.	16ff\	.	.	.
.	.	.	16dd\	.	.	.
.	.	.	16ff\JJ	.	.	.
.	.	.	16dd\LL	.	.	.
.	.	.	16ff\	.	.	.
.	.	.	16dd\	.	8b\	.
.	.	.	16ff\JJ	.	.	.
=22	=22	=22	=22	=22	=22	=22
2C/	.	.	4.ee-y\	.	16cc\LL	.
.	.	.	.	.	16ee-y\	.
.	.	.	.	.	16cc\	.
.	.	.	.	.	16ee-y\JJ	.
.	.	.	.	.	16cc\LL	.
.	.	.	.	.	16ee-y\	.
.	.	.	8ee-y\	.	16cc\	.
.	.	.	.	.	16ee-y\JJ	.
2F\	.	7	16cc\LL	.	4.a/	.
.	.	.	16ee-y\	.	.	.
.	.	.	16cc\	.	.	.
.	.	.	16ee-y\JJ	.	.	.
.	.	.	16cc\LL	.	.	.
.	.	.	16ee-y\	.	.	.
.	.	.	16cc\	.	8a/	.
.	.	.	16ee-y\JJ	.	.	.
!!LO:LB:g=original
=23	=23	=23	=23	=23	=23	=23
4BB-y/	.	.	8dd\L	.	4b-y\	.
.	.	.	8b-y\	.	.	.
8r	.	.	8ff\	.	16r	.
.	.	.	.	.	16dd\LL	.
8D\	.	6	8b-y\J	.	16ff\	.
.	.	.	.	.	16dd\JJ	.
4E-y\	.	.	8gg\L	.	(16b-y/LL	.
.	.	.	.	.	16a/J	.
.	.	.	8b-y\	.	8b-y/J)	.
4D\	.	6	8ff\	.	16r	.
.	.	.	.	.	16dd\LL	.
.	.	.	8b-y\J	.	16ff\	.
.	.	.	.	.	16dd\JJ	.
=24	=24	=24	=24	=24	=24	=24
8E-y/L	.	.	4gg\	.	(16b-y/LL	.
.	.	.	.	.	16a/J	.
8EE-y/J	.	.	.	.	8b-y/J)	.
8r	.	.	8gg\L	.	16r	.
.	.	.	.	.	16ee-y\LL	.
8C/	.	.	8cc\J	.	16gg\	.
.	.	.	.	.	16ee-y\JJ	.
4F\	.	.	8aa\L	.	(16cc\LL	.
.	.	.	.	.	16bn\J	.
.	.	.	8cc\	.	8cc\J)	.
4En\	.	6	8gg\	.	16r	.
.	.	.	.	.	16een\LL	.
.	.	.	8cc\J	.	16gg\	.
.	.	.	.	.	16ee\JJ	.
=25	=25	=25	=25	=25	=25	=25
8F/L	.	.	4aa\	.	(16cc\LL	.
.	.	.	.	.	16bn\J	.
8FF/J	.	.	.	.	8cc\J)	.
8r	.	.	8aa\L	.	16r	.
.	.	.	.	.	16ff\LL	.
8D\	.	.	8dd\J	.	16aa\	.
.	.	.	.	.	16ff\JJ	.
4G\	.	.	8bb-y\L	.	(16dd\LL	.
.	.	.	.	.	16cc#X\J	.
.	.	.	8dd\	.	8dd\J)	.
4F#X\	.	6	8aa\	.	16r	.
.	.	.	.	.	16ff#X\LL	.
.	.	.	8dd\J	.	16aa\	.
.	.	.	.	.	16ff#y\JJ	.
!!LO:PB:g=original
=26	=26	=26	=26	=26	=26	=26
8G/L	.	.	4bb-y\	.	(16dd\LL	.
.	.	.	.	.	16cc#X\J	.
8GG/	.	.	.	.	8dd\J)	.
8D/	.	#	8aa\L	.	16r	.
.	.	.	.	.	16dd\LL	.
8C/J	.	.	8dd\J	.	16ff#X\	.
.	.	.	.	.	16dd\JJ	.
4BB-y/	.	6	(16dd\LL	.	16gg\LL	.
.	.	.	16cc#X\J	.	16bb-y\	.
.	.	.	8dd\J)	.	16gg\	.
.	.	.	.	.	16bb-y\JJ	.
4r	.	.	8r	.	16gg\LL	.
.	.	.	.	.	16bb-y\	.
.	.	.	8dd\	.	16gg\	.
.	.	.	.	.	16bb-y\JJ	.
=27	=27	=27	=27	=27	=27	=27
4A\	.	#	16cc#X\LL	.	8een\L	.
.	.	.	16een\	.	.	.
.	.	.	16cc#y\	.	8a\J	.
.	.	.	16ee\JJ	.	.	.
4G\	.	4#| 2	16cc#X\LL	.	4r	.
.	.	.	16een\	.	.	.
.	.	.	16cc#y\	.	.	.
.	.	.	16ee\JJ	.	.	.
4F\	.	6	4a/	.	8r	.
.	.	.	.	.	(16ff\LL	.
.	.	.	.	.	16dd\JJ)	.
8r	.	.	16r	.	8a\L	.
.	.	.	16ff\LL	.	.	.
8D\	.	.	16aa\	.	(16ff\L	.
.	.	.	16ff\JJ	.	16dd\JJ)	.
=28	=28	=28	=28	=28	=28	=28
8G\L	.	.	(16dd\LL	.	8b-y\L	.
.	.	.	16cc#X\J	.	.	.
8F\J	.	6	8dd\J)	.	(16ff\L	.
.	.	.	.	.	16dd\JJ)	.
8r	.	.	16r	.	8a\L	.
.	.	.	16ff\LL	.	.	.
8D\	.	.	16aa\	.	(16ff\L	.
.	.	.	16ff\JJ	.	16dd\JJ)	.
8G\L	.	.	(16dd\LL	.	8b-y\L	.
.	.	.	16cc#X\J	.	.	.
8F\J	.	6	8dd\J)	.	(16ff\L	.
.	.	.	.	.	16dd\JJ)	.
8r	.	.	16r	.	8a\L	.
.	.	.	16ff\LL	.	.	.
8D\	.	.	16aa\	.	(16ff\L	.
.	.	.	16ff\JJ	.	16dd\JJ)	.
!!LO:LB:g=original
=29	=29	=29	=29	=29	=29	=29
4A\	.	#	8een\L	.	16cc#X/LL	.
.	.	.	.	.	16a/	.
.	.	.	8a\J	.	16cc#y/	.
.	.	.	.	.	16a/JJ	.
8r	.	.	8r	.	16dd/LL	.
.	.	.	.	.	16f/	.
8D\	.	.	8aa\	.	16dd/	.
.	.	.	.	.	16f/JJ	.
4A\	.	5nr 4	8aa\L	.	16e/LL	.
.	.	.	.	.	16dd/	.
.	.	.	8a\	.	16e/	.
.	.	.	.	.	16dd/JJ	.
4AA/	.	#	8aa\	.	16e/LL	.
.	.	.	.	.	16cc#X/	.
.	.	.	8gg\J	.	16e/	.
.	.	.	.	.	16cc#y/JJ	.
=30	=30	=30	=30	=30	=30	=30
2D\	.	.	16ff\LL	.	4dd\	.
.	.	.	16dd\	.	.	.
.	.	.	16ff\	.	.	.
.	.	.	16dd\JJ	.	.	.
.	.	.	16ff\LL	.	4r	.
.	.	.	16dd\	.	.	.
.	.	.	16ff\	.	.	.
.	.	.	16dd\JJ	.	.	.
2G\	.	7 n	4.bn\	.	16ff\LL	.
.	.	.	.	.	16dd\	.
.	.	.	.	.	16ff\	.
.	.	.	.	.	16dd\JJ	.
.	.	.	.	.	16ff\LL	.
.	.	.	.	.	16dd\	.
.	.	.	8b\	.	16ff\	.
.	.	.	.	.	16dd\JJ	.
=31	=31	=31	=31	=31	=31	=31
2C/	.	.	16cc\LL	.	4.ee-y\	.
.	.	.	16ee-y\	.	.	.
.	.	.	16cc\	.	.	.
.	.	.	16ee-y\JJ	.	.	.
.	.	.	16cc\LL	.	.	.
.	.	.	16ee-y\	.	.	.
.	.	.	16cc\	.	8ee-y\	.
.	.	.	16ee-y\JJ	.	.	.
2F\	.	7	4.a/	.	16cc\LL	.
.	.	.	.	.	16ee-y\	.
.	.	.	.	.	16cc\	.
.	.	.	.	.	16ee-y\JJ	.
.	.	.	.	.	16cc\LL	.
.	.	.	.	.	16ee-y\	.
.	.	.	8a/	.	16cc\	.
.	.	.	.	.	16ee-y\JJ	.
=32	=32	=32	=32	=32	=32	=32
4BB-y/	.	.	4b-y\	.	16dd\LL	.
.	.	.	.	.	16ff\	.
.	.	.	.	.	16bb-y\	.
.	.	.	.	.	16ff\JJ	.
8r	.	.	8r	.	16dd\LL	.
.	.	.	.	.	16ff\	.
8D\	.	6	8bb-y\	.	16bb-y\	.
.	.	.	.	.	16dd\JJ	.
4C/	.	7	(8bb-y\L	.	16ee-y\LL	.
.	.	.	.	.	16dd\	.
.	.	.	8aa\J)	.	16cc\	.
.	.	.	.	.	16dd\JJ	.
4F\	.	7	8r	.	16ee-y\LL	.
.	.	.	.	.	16gg\	.
.	.	.	8aa\	.	16ff\	.
.	.	.	.	.	16ee-y\JJ	.
!!LO:LB:g=original
=33	=33	=33	=33	=33	=33	=33
4BB-y/	.	.	16bb-y\LL	.	16dd\LL	.
.	.	.	16ff\	.	16cc\J	.
.	.	.	16bb-y\	.	8b-y\J	.
.	.	.	16ff\JJ	.	.	.
8r	.	.	16dd\LL	.	8r	.
.	.	.	16ff\	.	.	.
8D\	.	6	16bb-y\	.	8bb-y\	.
.	.	.	16dd\JJ	.	.	.
4C/	.	7	16ee-y\LL	.	(8bb-y\L	.
.	.	.	16dd\	.	.	.
.	.	.	16cc\	.	8aa\J)	.
.	.	.	16dd\JJ	.	.	.
4F\	.	7	16ee-y\LL	.	8r	.
.	.	.	16gg\	.	.	.
.	.	.	16ff\	.	8aa\	.
.	.	.	16ee-y\JJ	.	.	.
=34	=34	=34	=34	=34	=34	=34
8BB-y\L	.	.	16dd\LL	.	8bb-y\L	.
.	.	.	16cc\J	.	.	.
16d\L	.	.	8b-y\J	.	8b-y\J	.
16c\JJ	.	.	.	.	.	.
8B-y\L	.	.	4r	.	8r	.
8A\J	.	6	.	.	8ff\	.
8G\L	.	.	2r	.	8bb-y\L	.
8F\	.	.	.	.	8b-y\	.
8E-y\	.	.	.	.	8b-y\	.
8D\J	.	.	.	.	8b-y\J	.
=35	=35	=35	=35	=35	=35	=35
4G\	.	.	4r	.	(16b-y/LL	.
.	.	.	.	.	16a/J	.
.	.	.	.	.	8b-y/J)	.
8B-y\L	.	.	8r	.	4r	.
8A\J	.	6	8ff\	.	.	.
8G\L	.	.	8bb-y\L	.	2r	.
8F\	.	.	8b-y\	.	.	.
8E-y\	.	.	8b-y\	.	.	.
8D\J	.	6	8b-y\J	.	.	.
=36	=36	=36	=36	=36	=36	=36
4E-y\	.	.	(16b-y/LL	.	8r	.
.	.	.	16a/J	.	.	.
.	.	.	8b-y/J)	.	8b-y\	.
8r	.	.	16r	.	8ff\L	.
.	.	.	16dd\LL	.	.	.
8D\	.	6	16ff\	.	8b-y\J	.
.	.	.	16dd\JJ	.	.	.
4E-y\	.	.	(16b-y/LL	.	8gg\L	.
.	.	.	16a/J	.	.	.
.	.	.	8b-y/J)	.	8b-y\	.
4D\	.	6	16r	.	8ff\	.
.	.	.	16dd\LL	.	.	.
.	.	.	16ff\	.	8b-y\J	.
.	.	.	16dd\JJ	.	.	.
!!LO:LB:g=original
=37	=37	=37	=37	=37	=37	=37
4E-y\	.	.	(16b-y/LL	.	8gg\L	.
.	.	.	16a/J	.	.	.
.	.	.	8b-y/J)	.	8b-y\	.
8r	.	.	16r	.	8ff\	.
.	.	.	16dd\LL	.	.	.
8D\	.	6	16ff\	.	8b-y\J	.
.	.	.	16dd\JJ	.	.	.
8E-y\L	.	6 5	8cc\L	.	16gg\LL	.
.	.	.	.	.	16aa\JJ	.
16D\L	.	.	8ff\	.	4bb-y\	.
16E-y\JJ	.	.	.	.	.	.
8F/L	.	5 4	8cc\	.	.	.
8FF/J	.	5	8ff\J	.	8aa\	.
=38	=38	=38	=38	=38	=38	=38
4BB-y/	.	.	8dd\L	.	4bb-y\	.
.	.	.	8b-y\	.	.	.
8r	.	.	8ff\	p	16r	.
.	.	.	.	.	16dd\LL	p
8D\	p	6	8b-y\J	.	16ff\	.
.	.	.	.	.	16dd\JJ	.
4E-y\	.	.	8gg\L	.	(16b-y/LL	.
.	.	.	.	.	16a/J	.
.	.	.	8b-y\	.	8b-y/J)	.
4D\	.	6	8ff\	.	16r	.
.	.	.	.	.	16dd\LL	.
.	.	.	8b-y\J	.	16ff\	.
.	.	.	.	.	16dd\JJ	.
=39	=39	=39	=39	=39	=39	=39
4E-y\	.	.	8gg\L	.	(16b-y/LL	.
.	.	.	.	.	16a/J	.
.	.	.	8b-y\	.	8b-y/J)	.
8r	.	.	8ff\	.	16r	.
.	.	.	.	.	16dd\LL	.
8D\	.	6	8b-y\J	.	16ff\	.
.	.	.	.	.	16dd\JJ	.
8E-y\L	.	6 5	16g/LL	.	8cc\L	.
.	.	.	16a/JJ	.	.	.
16D\L	.	.	4b-y\	.	8ff\	.
16E-y\JJ	.	.	.	.	.	.
8F/L	.	5 4	.	.	8cc\	.
8FF/J	.	3	8a/	.	8ff\J	.
=40	=40	=40	=40	=40	=40	=40
8BB-y\L	.	.	8b-y/L	.	8dd\	.
8B-y\	f	.	8d/J	.	4b-y\	f
8E-y\	.	6 5	4c/	f	.	.
8F\J	.	.	.	.	8a/	.
2BB-y/;	.	.	2B-y/;	.	2b-y\;	.
=:|!	=:|!	=:|!	=:|!	=:|!	=:|!	=:|!
*-	*-	*-	*-	*-	*-	*-
!!!SMS: RV 78 / Estienne Roger (No. 363), Amsterdam [facs.]
!!!ENC: Fran Bennion   rev. 05/19/21 E Correia
!!!END: 2004/10/28
!!!ONB: Converted from MuseData with musedata2hum on Sat May 11 12:01:57 2024
!!!YEM: (C) 2004, 2019 Center for Computer Assisted Research in the Humanities
!!!system-decoration: [(s1,s2,s3)]
!!!URL-info: https://wiki.ccarh.org/wiki/MuseData:_Antonio_Vivaldi#Op._1:_Suonate_da_camera_a_tr.C3.A8.2C_due_violini_e_violone_o_cembalo Information about Vivaldi Op. 1 on the CCARH wiki
!!!URL-pdf: https://pdf.musedata.org/vivaldi-op01-no10.pdf#page=2 MuseData edition
!!!URL-pdf: https://s9.imslp.org/files/imglnks/usimg/1/18/IMSLP280399-PMLP10351-Vivaldi_Sonatas_Op_1_-_Violino_Primo.pdf#page=16 Violino primo part, Amsterdam: Estienne Roger, n.d.(ca.1723). Plate 363.
!!!URL-pdf: https://s9.imslp.org/files/imglnks/usimg/d/d5/IMSLP280400-PMLP10351-Vivaldi_Sonatas_Op_1_-_Violino_Secondo.pdf#page=13 Violino secondo part, Amsterdam: Estienne Roger, n.d.(ca.1723). Plate 363.
!!!URL-pdf: https://s9.imslp.org/files/imglnks/usimg/8/89/IMSLP280401-PMLP10351-Vivaldi_Sonatas_Op_1_-_Organo_e_Violoncello.pdf#page=14 Organo e Violoncello parts, Amsterdam: Estienne Roger, n.d.(ca.1723). Plate 363.
!!!URL-youtube: https://www.youtube.com/watch?v=P5HHPe_W6Uo&t=1401s L'Arte dell'Arco
!!!title: @{OTL}, mov. @{OMV}
!!!filter-vcross: vcross
!!!EEV: 2024/05/11
!!!source-file: https://bitbucket.org/musedata/vivaldi/src/master/roger/op1/no10/stage2/02/01
!!!source-file: https://bitbucket.org/musedata/vivaldi/src/master/roger/op1/no10/stage2/02/02
!!!source-file: https://bitbucket.org/musedata/vivaldi/src/master/roger/op1/no10/stage2/02/03
!!!source-file: https://bitbucket.org/musedata/vivaldi/src/master/roger/op1/no10/stage2/02/04
